X:249
T:Sicilian Dance, The TS.249
M:6/8
L:1/8
Q:3/8=120
S:Thomas Sands’ MS,1810,Lincolnshire
R:jig
O:England;Lincolnshire
Z:vmp.Ruairidh Greig, 2011
K:F
C|FGF AGF|c2cc2B|Acf c2B|A2GF2C|
FGF AGF|c2cc2f|efe dc=B|c3″dotted in ms”c2:|
c|g2c b2a|gfe (f2e/f/)|g2c b2a|gfe f>ef|
dbb cbb|Bgg”dot omitted”f2A|BAG c2E|F3″undotted in ms”F3||
A3 GAG|F2F FAc|c3 BcB|A2A Acf|
f2ee2d|d2cc2B|ABc cBA|A3″undotted in ms”G3||
f3fd=B|c>dc ceg|b3 bge|f>gf f2c|
f2ed2c|d2cB2A|BAGc2E|F3F2|]

